X: 95
T: No_184_Old_Man's_Dance_Song_(c).krn
N: Derived from No_184_Old_Man's_Dance_Song_(c).krn
%%abc-version 2.0
%%abcx-abcm2ps-target-version 5.9.1 (29 Sep 2008)
%%abc-creator hum2abc beta
%%abcx-conversion-date 2019/03/15 08:38:45
%%humdrum-veritas 2541472293
%%humdrum-veritas-data 1044880124
%%linebreak <none>
%%barnumbers 0
L: 1/16
M: 2/4
K: Eb clef=bass
[K:clef=bass][M:2/4]B,3G, A,2 z A, | 
E,3D, D,2 z2 ||  
[M:3/4]B,,3E, E,2G,2 G,E, z E, ||  
[M:2/4]A,3G, (G,2(E,2) | 
(G,2)(B,2) B,3)C | 
(B,A,2)G, G,2 z G, | 
E,3D, D,2 z2 | 
B,,3E, E,2G,2 | 
G,E,2D, (D,B,,) (3G,G,G, | 
G,8 |]  



